X:1
T:Title
%%score { ( 1 3 ) | 2 }
L:1/8
M:4/4
K:G
V:1 treble nm="Grand Piano"
V:3 treble 
V:2 treble 
V:1
 z4 z2[Q:1/4=100] D2 | D2 GA B2 GB | d2 BG [FA]3 [GB] | [Ac]2 [GB][FA] B2 AG | %4
 [FA]2 [FA]>[GB] [FA]3 [FA] | B2 dd B2 [FA][EG] | [EG]2 [DF][CE] [B,D]3 D | G2 Bc d2 BG | %8
 [DGB]2 [CFA]>[CFA] [B,G]4 | A3 B [Ac]2- [DAc]2 | B3 c [Bd]2- [DBd]2 | d2 dd [Ac][Ac][GB][GB] | %12
 A2- [GA]2 A2 z2 | B3 c [Bd]4 | z4 [ce]4[K:bass] | [Bd][DGB][CFA][B,G] [DGB]2 [CFA]2 | %16
[M:3/4] [B,G]6 |] %17
V:2
 z4 z2 [G,B,]2 | [G,B,]2 [G,B,D][G,CD] [G,DG]2 [G,B,][G,DG] | %2
 [G,B,G]2 [G,G][K:bass][E,B,] [D,D]3 [G,D] | [D,D]2 [D,D][D,D] [G,DG]2 [F,D][E,^CE] | %4
 [D,D]2 [D,D]>[D,D] [D,C]3 [D,D] | [G,DG]2 [G,B,G][G,B,G] [G,DG]2[K:bass] [D,C][E,B,] | %6
 [C,C]2 [C,G,][C,G,] [G,,G,]3 [G,B,] | [G,B,D]2 [G,D][G,A,D] [G,B,G]2 [G,G][K:bass][E,B,] | %8
 D,2 D,>D, G,4 | F3 G[K:bass] D,2 D,2 | G3 A G,2 G,2 | %11
 [G,B,G]2 [G,B,G][G,B,G][K:bass] [F,D][F,D][G,D][G,D] | [D,D]2 [E,^C]2 [F,=C]2 z2 | G3 A G,2 G,2 | %14
 A3 B[K:bass] [C,G,]2 z2 | [D,G,]D,D,D, D,2 D,2 |[M:3/4] G,,6 |] %17
V:3
 x8 | x8 | x8 | x8 | x8 | x8 | x8 | x8 | x8 | z4 D2 z2 | z4 D2 z2 | x8 | E2 z2 z4 | x8 | %14
 c3 d z2[K:bass] [C,G,]2 | x8 |[M:3/4] x6 |] %17

